X: 727
T: Ma fandongpai
%%abc-version 2.0
%%abcx-abcm2ps-target-version 5.9.1 (29 Sep 2008)
%%abc-creator hum2abc beta
%%abcx-conversion-date 2013/10/02 07:52:30
%%abc-edited-by Helmut Schaffrath
%%humdrum-veritas 3202783927
%%humdrum-veritas-data 1225239208
%%continueall 1
%%barnumbers 0
L: 1/8
M: 2/4
K: G
B B G A [I:setbarnb 1]| 
d2c B | 
A B/ A/ E G | 
F ED2 | 
A A E G | 
A G F E | 
D D B, A,/ B,/ | 
D4 |]  



